X: 8
T: The Monaghan
R: jig
M: 6/8
L: 1/8
K: Emin
|:BGE E2e|BGE FGA|BGE E2d|AFD FGA|
BGE E2e|BGE FGA|1d^cd ABG|FDF AFA:|2d^cB ABG|FDF AFD||
|:EGB efg|fe^d e2F|EGB eBG|FDF AFD|
EGB efg|fdf e^ce|1dcB ABG|FDF AFD:|2d^cd ABG|FDF AFA||
|:g2e efe|geg bge|g2e efg|fdf agf|
g2e efe|geg bge|1d^cd ABG|FDF AFA:|2d^cB ABG|FDF AFD||
|:EGB eBG|BGE FGF|EGB eBG|FDF AGF|
EGB GBe|Beg egb|fed ABG|1FDF AGF:|2FED D3||


Tune 67	Setting 25892

